-----BEGIN PGP PUBLIC KEY BLOCK-----

mQINBGqPnvQBEAC+FsSE4KB9+Oe805C99fuKxqGjC3HQPgwQCo8qqu4PacxHxaU/
1OoCR3XHsoGJNgvj46o9kHo/ZVLNF08AQlND9Kq0D0xBsY04vZq7mf25RYchL8Hq
VbIgGRN4lsLCZrU0LYoD0nlxJgvdNQ1fvHGB13vX27PoM1XODVHBb6qhLMES/lSL
Q0Ah20LfStpSUzp/G9hobXrA/Zii9AgmE1O5++c2d4+tjC8Xdqku5s/6QmiseQDN
BYvXHW0WTgaP4c41bPg5h/hV4UuUlHUCzFMNWrWTKCGdzY7F059jJ8/kjQ6uj/8R
6Cv+xxPX6oR5b0fBLxWstLMmPLtKX0zYmBjrX685uZY9jbfqjqal5C1eOLDfDtbL
RaGyBTs+mN/ox/nYfdEQSNl3P7fztmxTfNMHZlJBBfGYp5MmzI+5pDN/JWOQGIXm
GRWZ8Bg4Z7t/SNJxtU3xAkVOwBNaxex22295zBag/djqzJXcdEINq66GFNOKNCHN
CEfJDmojsD1/Qknpg4RBBVHl2wNQCmD1AJn9m9rIdJKc10MklNfHvCxI0DFVcBQH
CC/UoafNU4UuiBPK30X7+jXYV6BpmtHqj9iFHlmGshuEmvIva8Q/Y6ne2VBBpLnw
6JEyfGy5MXiukHVfRyc62HsKAoSHPxUubGAKqNz82vNpY3LyYpi08znlzwARAQAB
tB9HdXlzIEluYyA8c2VjdXJpdHlAZ3V5c2luYy5vcmc+iQJzBBMBCABdFiEE9Fu2
002C71a7l/vg8wX7M1krRsgFAmqPnvQbFIAAAAAABAAObWFudTIsMi41KzEuMTIs
MCwzAhsBBQkFo5qABQsJCAcCAiICBhUKCQgLAgQWAgMBAh4HAheAAAoJEPMF+zNZ
K0bIu4cQALjbXMVFyxYIMppKNqlEZkUwciio2QFtg2ohqkyAPsn8xDDCf+ArVEd4
YhXKt4E35hg8nEVFBi/oG/2CDIuQ+nkGenVhRQI/V7s0RgiLf9tXFSGvFRp7hIFZ
yft8gwi/+Hzt59KNcy8t7xJoMwI8UuzPhcAEptctoOa4RQVAPCsKW30hWzeldO1e
EXcSMcpwHPaImQOQXhZkLeO2pOCzFXDcfk3Ykmt0QC/ygxFYJVGZurMLpdQ+WfI4
A30Aevkuykxn0hFW17EA9UbmC/Vp57vqAJktWwCkO6ChpIrCss5tsfPH0+o0kwP8
pJ7LdDzu3NlKNVkZRD5eufpWaAx18jfYev5iVtVAWTRQrT+yHfm+7gmLbRErLlPP
FKf3dpMcQSLpvDThGJjj6sfTvf9gpehLNHaJ7hSA85/VZQc5xnzmuMDJJvT5jAhG
87UlBEU1GHWn82CmqBC09RQyE6ZAi7LnM9bWyHJcCpgdaT6DGQkqLEporWDNzquo
Xli+fbp6e6ZCgY++31YD+CktxWAJgL1lGt6NKWo6E60mYFVhf7EipyPbZrMqSPRa
SHsu6pXlqr9WK7k2XQf16w1BXt7rTTgu2M4HRLjSluYB+vjbSAhGK2X7D9qpskP0
IMRFhR3Chr9nqXJT+syXpmRKLuE/Navyt+vvw3rjD40LpwLSkfSSuQINBGqPoY0B
EADezOn2IhUKeX7nLN7tPn8U2ZecbCea7eFdZRz2r8EEIWnF9LAyQpplzlVytRRr
7plDSbyEehn+uuPHEE6KJCYwPhHI7NREBQYyMgpQ7pdWxIEKRCk7AmoYzgozq9Xc
OKJmFjQcOS1XpXpiyI0Vlx+ETkrbJ0u5mPISbJmwtyWp5sYsS4atKeFwOb7hwtiU
lFAil7KKroSg01k8/wYMj/g0Zbb4VwMp8Ew4oRAlVdlUIcHbew1r9gTxxEkLmjOc
bOO2hx0dn3NCpBM6G5ANHXglyo5alt5WRBXBu5enZeZ+C6ZKChw76+MpmFqxeC5e
DnbAPmNon7HEtxj5g9/ADbovpKdNrzPGnTxwXfXcykJbIise12dpZ6oZcxZQPv4B
pzn+D31c0EsYgo9cnkRdtFNP6d+FCDOgTDfRyPzzqeLbQMSf0JWrN/N0mLiEhxsk
AL6ArSGH+NDB2XlU7aKyuzYrZNZM3JEG5ln7YoJFTn5ez9xVEAaGChuQGaJ15chq
flYorts56QIp5BM6iDyVh/sQHwlx27J+ons0n0SNtXdaDxJF9HWAUGrR8AAMp3PR
I/F16LqGGFs2+tIVf0Cv1sGsgP24oKcYoTdM4FS8zgtMVSKb1B0x10bP7cI/ID68
dgVna6Y1iKFXtF3131xjEy5i2OwfF8Oic8LtB3+kKOkuHwARAQABiQSOBBgBCABC
FiEE9Fu2002C71a7l/vg8wX7M1krRsgFAmqPoY0bFIAAAAAABAAObWFudTIsMi41
KzEuMTIsMCwzAhsCBQkDwmcAAkAJEPMF+zNZK0bIwXQgBBkBCAAdFiEEYwKdDddu
QGFNRGMft8qosrSYlg0FAmqPoY0ACgkQt8qosrSYlg2wFw/+PaRzBOrT3NiTAlqd
Pxp230sfsXCsJP7iqxDZcNGUNIntUY/rLkqW9VkR1hX7p6RUcnOYxYIiMvF7WZBH
r07YxI47GenQdOnUgsxyq4XWlV4qTXViidOKjmsY5vbkZidzmqAlAeW39/MyVVVA
a9Y4rq8VeQZPP8HrX2R+bzNrVBwgBq6OuewQNoweePfDvSp7QyJEyyqf5OoJ0w1U
ILVTGFFhr4MmLZt7TvfQhTTR6kiv2eRl3sOrmskxaSBCU1lZB+bNTkJ08Bx3Pb5S
b1SLd/2lSRNa+ecxYekt1Tg4CbETsEO6E1MuIt+c9eOAwq3u/yFhmdHIOsDlykf1
JRkfUJPOIsbeAf4kDIks7xJrDIKcB/4Ck93/wE056Xcmb2lUbZrnLBKuusprTADV
0GYYWS9idQcIeC4o+XhUB+FClz8SYoHTfW3fd/VifnoxKJphnK+T1q/PxygtAiV9
BhM73P7UlI4tbg13YrN27ZcUmQgOD6EvjP3UBO3w5+RPz5o4fkmeZwjbCHsQe4aZ
zkmef5GQ7ijOxWrBCh8tfXr4ZLSqLAcFGzL5T5YWDABUfUsEHzc2Ei3/+jEMtALL
cGbW+0GsZJJvpFN7T3+yXlhg5rH1AtAxFGbUAvuWI+gmv0vgs8Qy0Zrk7+e9oiUU
ihjs508Ex0BTJ96z+n+NI5MSQ6Ty2RAAsfYyLLIgcEZf6bBngziExes2g9vzYcb9
YqyVGcJ2wKRXUJAsC4fUjQhJuPHj1XXtqXfUa6Z9tdr7XfIZ2CUfasQOjkudTbbb
tRYVGv+6i0Ezstq6/PBJjfD1M/VzrWvTUaa5cpGoNq5eOdvm2xlDs+KLK5wYPj+l
bEKgOnKD4lpBTu26Smj7LskACoDk4ye8nnh1Nb6cG9n3l4jkZw/7ENA4ZZU6rFwE
h+qo11yLKmybOe+WXGJoPuJNTXiOvDpQVVNe9kgr1Iiz+sSW/CnW3PAglt0YVi/G
/DItQu+p3T7xekNZQHsXeXQJZgqlTPOgCWnVVqKoQ+pIVO9wpA7tjvqAFmwF4MNH
EU1C9+3ku7FmqUwFKD4YcKsetLPfOpEOA4r7yQCd/A+73zSJaqdNwTty/EwZ9mwi
5RDz9jSsG7PgqklazwQ5XyzAY7fHSWX91UUSqZUb3xdD8FXSUiAH70JHheDFZcf0
ScS459b/kUWrTJderAuaOhKMEPhi31dNgnd0fViEHYBmz02JitscbbTEDPiaiyCl
Nz3r48zS1GOvo7saaI0K2L6uXfYbXcl0a7+mTLFgTHwqw5Zz/OHoa+k33DFF3TgO
my+5RJJcxbNR24aew4AQdyDw25Y0Y8gPsKRmxQNERf0MBm390tkvWiXBMMnAtQSS
HXUvyJUZxMW5Ag0Eao+hsAEQAL9od/ZnjJfspBTKWFkJUeqIuaONWCZIShIbXo7z
HXaEmF/z4Yy/sWtSRz2fFgPVFbNovdaNqL5QVhrFm8UvqaA2V3IeEncK58FzUmRp
+0DCddVJK0vz2KWf4Xgi9+Xb11rQj3JByJwwtDaLYdTpGUZeJ1otAV1qHnguT/gv
G1CCvowgno8cn9DJFv8sYS9hta9JvSSwDeSarq0/o0XhWxweReRWx8xPMeQ5cP5c
VkSZ2+t9ksRVzKGz2m5oWA4WHPiTxsPBezcZ34x4xpIPwYhATjBqjV929F/s7yRW
9Rx54bvIqvK3RrQVVLrOzt3bOuD7SftxxVCUdt6tk79C1f/qajAnsw+s/mpzJMxq
3jH1njdkHLEDgG31iUfUm82P+kfXYNu4+DNp+nkqrm8Zu4ikxNNDM1AJwHwjsfVs
L815ojJh3CNEaV7QTfssPMR6CC2KKsSmdeksAMvBCvQD+S0DW6+ojpmqjEmf6wp+
UHLAjOSBVF8BnBKxEvPdyK+T+A9HIUCWHI9JE+TsVjVLR1k2Q9LBQSmZZNYImdZX
H6E714zKxLvSnJEvdC8vIsxIw/9avFZ2jf1Sgvmh0STmvSfd7FWS7fK2HMRdLG4J
nzvZRV8U6IGfdHu1I5wclS8/YAmX9+FpRy5oYulVJTTrLxUKlyzKWOZm6x23UM9V
t6aJABEBAAGJBI4EGAEIAEIWIQT0W7bTTYLvVruX++DzBfszWStGyAUCao+hsBsU
gAAAAAAEAA5tYW51MiwyLjUrMS4xMiwwLDMCGwIFCQPCZwACQAkQ8wX7M1krRsjB
dCAEGQEIAB0WIQRltvVWTq87xG04hnsQI5rMXyPe7gUCao+hsAAKCRAQI5rMXyPe
7vamD/9Q/3Ml1IpwDb92KhKGmbt3y7m48VhUTl08RUMU149x8iOYVRBV6SUgBeCw
bn4kY7/FKr00GLJfYdr2ljCIY109VM73A2i3oCLiOmzNpqYbXma5aAKNu3N5Ggll
PuX631a8XHTF4NNBveNKsMMsqJHiRG6+bDeBy33mYReHR8XcvEM5mp+DG6MrMjTM
xgVR1J67oTfJXBfb8QJnNcmxN9xpAm+SogQg7j3ccelCkCxe20qDIm3YoaaM0Phx
BJeVkJfdENCruDy5CFhAhpQOLR7eVeCb56c9SCqKZLT3buB8RIsbCMUAR3D+Y+Xb
AhPfXEHDmQ+mGQ7aKGcYZug1e7cbfJzWH3Tk1J/MdtJERhGhRTDmffGM/ZlZwVuM
mvN9oa3dZ+Oj8gI76ywJVOO8d85CIFHqpClf3UraQXmjewG5pVupKR3QMxWoM1rX
GqGJ10YZmUDY000Dis/GrdPhEycf7QrsAusRe5VuT6gz5nlAoWXsD2M0suQAvNXy
y8bg+D+1amn2MMuf58uzb8h3kb4wCSVt6rBkQxuZbyAibo7nxHmtFGa2gyxCBjHa
sBs4j7GZIEzQQf1EUsYjDQ0tCLGSR8uXNwaSMGqvZjiA65Jra69UPdZkypUFnIpg
WKcqSzO+oksi7otsF4QuTeoeRxuh3RdjG5Y1ejV1boG29iPTMDhCD/9lzUqHwyGP
1EwRhdznMQtOB2/Ww88471BGyQzg1AGk/aWqne7/Ic/Mx8fCi/k+qXXM0WW0ev8g
z5x6vNu2yvXwFqiViMp+InVQY8lUSaD1O12R8mXXjOCBNn7Fg6F+YOWp0+wRH4X6
IMexQrw3gKz1zoUyePh5zLkUxpw6YCd8pfo5rKeqww08UX3uMcMKHVp910ZjGwSX
JUgUd5rcevYejhB+Zf6ovUHCQsFi7B5DbSHm1ucgB57TEBpurCzsb/BFblYnvNFx
q9NBS4tEGuG8azIqH/7+w9NubnLPu6pTU0C7bKuGcS+dAopqPUgiL0NnLW5SaDNr
6VTZjGu3xoZxikyPm7U36B3WmHpHKXOVNjoOqXzhX7Up5SVZcyeDTIwpX1jIriID
U/0m/CD3np+P8Cra1DffZ58xXEjEXhmu2WkIjsjEcmWlOrGW83TmNZYKf7VKlZPb
jo+6wpqnQmOd91bk/rr+xdFh4IkaT761fqWAUAsHbmdZsDmbYeIRLtMvS7lS03u1
zOznSFZInIyQT6pD8KOek/Ny2NqfIasBqr5svOjDmB/mfBYCM6f/KbgsA6jqMGnw
tVZMf5v9MvWVg36zTZhZGwqi0Z417yNjnFcnvI6sxvkTdIw6yifHYp5O97jdVcd0
+GaXcPCBlWjmy1TD1xL2YKA0DVzFYj75Fg==
=BWji
-----END PGP PUBLIC KEY BLOCK-----
